X:1

T:The Whinny Hills of Leitrim [2]

S:Sonny Brogan  (accordion)

B:CRE 1, no. 67

R:slip jig

Z:Transcribed by Paul de Grae

M:9/8

L:1/8

K:G

AGA dcA d2 c|~AGA dcA GFG|

~AGA dcA d2 c|eag ~ege dBG|

AGA dcA d2 c|~AGA dcA GFG|

~AGA dcA d2 c|eag ~ege dBG||

GBB GBd g3|GBB {A}GBG FED|

GBB GBd gag|~fgf efe dBA|

GBB GBd g3|GBB {A}GBG FED|

GBB GBd gag|~fgf efe dBG||

 

WHIP HER AND GIRD HER. AKA and see “Ranger’s Frolick.” Scottish, Irish, English; Country Dance Tune or Jig. G Major. Standard tuning (fiddle). ABC (Geoghegan): AABBCCD (Joyce). The melody appears in the Drummond Castle Manuscript (in the possession of the Earl of Ancaster at Drummond Castle), inscribed "A Collection of Country Dances written for the use of his Grace the Duke of Perth by Dav. Young, 1734." Joyce obtained the melody from the Pigot collection. Northumbrian musician William Vickers included the melody in his 1770 manuscript collection (as “Whipper and Girder”), with “Ranger’s Frolick” as an alternate title. See also “Ranger’s Frolick,” by which name the melody appears in English country dance collections. Geoghegan (Compleat Tutor for the Pastoral or New Bagpipe), c. 1745-46; p. 24. Joyce (Old Irish Folk Music and Songs), 1909; No. 722, p. 360.
